Newaita-dark/apps/16/libreoffice-base.svg

<svg height="16" viewBox="0 0 16 16" width="16" xmlns="http://www.w3.org/2000/svg" xmlns:xlink="http://www.w3.org/1999/xlink"><linearGradient id="a" gradientTransform="matrix(.0372059 0 0 .031253 -1.315168 6.719393)" gradientUnits="userSpaceOnUse" x1="254" x2="254" y1="233.5" y2="254.666672"><stop offset="0" stop-opacity=".27451"/><stop offset="1" stop-opacity="0"/></linearGradient><linearGradient id="b"><stop offset="0" stop-opacity=".313726"/><stop offset=".222222" stop-opacity=".27451"/><stop offset="1" stop-opacity="0"/></linearGradient><radialGradient id="c" cx="450.908936" cy="189.579361" gradientTransform="matrix(.00000009 -.0390662 -.0703192 -.00000005 25.238424 31.797666)" gradientUnits="userSpaceOnUse" r="21.166656" xlink:href="#b"/><radialGradient id="d" cx="450.908936" cy="189.579361" gradientTransform="matrix(-.00000009 .0390662 .0703192 .00000005 -9.361907 -3.763739)" gradientUnits="userSpaceOnUse" r="21.166656" xlink:href="#b"/><radialGradient id="e" cx="450.908936" cy="189.579361" gradientTransform="matrix(-.00000009 -.0390662 .0703192 -.00000005 -9.361907 31.797666)" gradientUnits="userSpaceOnUse" r="21.166656" xlink:href="#b"/><radialGradient id="f" cx="450.908936" cy="189.579361" gradientTransform="matrix(.00000009 .0390662 -.0703192 .00000005 25.238423 -3.76374)" gradientUnits="userSpaceOnUse" r="21.166656" xlink:href="#b"/><linearGradient id="g"><stop offset="0" stop-color="#ec407a"/><stop offset="1" stop-color="#f06292"/></linearGradient><linearGradient id="h" gradientUnits="userSpaceOnUse" x1="7.9382592" x2="7.9382592" xlink:href="#g" y1="14.01696600048" y2="1.4480552201"/><linearGradient id="i" gradientUnits="userSpaceOnUse" x1="7.9382592" x2="7.9382592" y1="13.35544440048" y2="2.1095768201"><stop offset="0" stop-color="#e0e0e0"/><stop offset="1" stop-color="#eee"/></linearGradient><linearGradient id="j" gradientUnits="userSpaceOnUse" x1="7.9382598" x2="7.9382598" xlink:href="#g" y1="9.88246340048" y2="5.25181169607"/><path d="m3.804688 14.015625h8.269531v.664063h-8.269531zm0 0" fill="url(#a)"/><path d="m12.074219 14.015625h1.320312v-.660156h-1.320312zm0 0" fill="url(#c)"/><path d="m3.804688 14.015625h-1.324219v.664063h1.324219zm0 0" fill="url(#d)"/><path d="m3.804688 14.015625h-1.324219v-.660156h1.324219zm0 0" fill="url(#e)"/><path d="m12.074219 14.015625h1.320312v.664063h-1.320312zm0 0" fill="url(#f)"/><path d="m3.308594 1.449219c-.367188 0-.664063.292969-.664063.660156v11.246094c0 .367187.296875.660156.664063.660156h9.261718c.363282 0 .660157-.292969.660157-.660156v-7.527344l-4.378907-4.378906zm6.945312 0 2.976563 2.976562v-2.316406c0-.367187-.296875-.660156-.660157-.660156zm0 0" fill="url(#h)"/><path d="m3.636719 2.109375c-.179688 0-.328125.148437-.328125.332031v10.582032c0 .183593.148437.332031.328125.332031h8.601562c.183594 0 .332031-.148438.332031-.332031v-6.945313l-3.96875-3.96875zm0 0" fill="url(#i)"/><path d="m3.308594 1.449219c-.367188 0-.664063.292969-.664063.660156v.164063c0-.363282.296875-.660157.664063-.660157h5.542968l4.378907 4.378907v-.164063l-4.378907-4.378906zm6.945312 0 .164063.164062h2.152343c.363282 0 .660157.296875.660157.660157v-.164063c0-.367187-.296875-.660156-.660157-.660156zm0 0" fill="#fff" fill-opacity=".392157"/><path d="m3.636719 2.109375c-.179688 0-.328125.148437-.328125.332031v.246094c0-.183594.148437-.328125.328125-.328125h4.964843l3.96875 3.96875v-.25l-3.96875-3.96875zm0 0" fill-opacity=".235294"/><path d="m3.308594 13.035156v.15625c0 .183594.148437.332032.328125.332032h8.601562c.183594 0 .332031-.148438.332031-.332032v-.15625c0 .183594-.148437.332032-.332031.332032h-8.601562c-.179688 0-.328125-.148438-.328125-.332032zm0 0" fill="#fff" fill-opacity=".392157"/><path d="m439.800544 255.093763c-21.73021 0-39.681252 17.951043-39.681252 40.153648v1279.72038c0 22.202605 17.951042 40.153648 39.681252 40.153648h1040.21568c22.202605 0 40.153648-17.951043 40.153648-40.153648v-839.919836l-479.954192-479.954192zm0 0" fill="none" stroke="#212121" stroke-linecap="round" stroke-linejoin="round" stroke-width="11.338583" transform="scale(.00826902)"/><path d="m10.253906 1.449219 2.976563 2.976562v-.164062l-2.816407-2.8125zm-7.609375 11.746093v.160157c0 .367187.296875.660156.664063.660156h9.261718c.363282 0 .660157-.292969.660157-.660156v-.160157c0 .363282-.296875.660157-.660157.660157h-9.261718c-.367188 0-.664063-.296875-.664063-.660157zm0 0" fill-opacity=".235294"/><path d="m400.119292 175.258863c-44.405211 0-80.307296 35.42969-80.307296 79.8349v1360.027676c0 44.405211 35.902085 79.8349 80.307296 79.8349h1120.05058c43.932814 0 79.8349-35.429689 79.8349-79.8349v-910.306819l-529.555757-529.555757zm839.919836 0 359.965644 359.965644v-280.130744c0-44.40521-35.902086-79.8349-79.8349-79.8349zm0 0" fill="none" stroke="#212121" stroke-linecap="round" stroke-linejoin="round" stroke-width="11.338583" transform="scale(.00826902)"/><path d="m7.9375 5.25c-1.191406 0-2.148438.445312-2.148438.992188 0 .550781.957032.996093 2.148438.996093s2.152344-.445312 2.152344-.996093c0-.546876-.960938-.992188-2.152344-.992188zm-1.863281 1.988281c-.183594.144531-.285157.3125-.285157.496094 0 .546875.957032.992187 2.148438.992187s2.152344-.445312 2.152344-.992187c0-.183594-.105469-.351563-.289063-.496094-.371093.296875-1.0625.496094-1.863281.496094-.796875 0-1.492188-.199219-1.863281-.496094zm0 1.488281c-.183594.144532-.285157.3125-.285157.496094 0 .546875.957032.992188 2.148438.992188s2.152344-.445313 2.152344-.992188c0-.183594-.105469-.351562-.289063-.496094-.371093.296876-1.0625.496094-1.863281.496094-.796875 0-1.492188-.199218-1.863281-.496094zm0 0" fill="url(#j)"/><path d="m7.9375 5.25c-1.191406 0-2.148438.445312-2.148438.992188 0 .03125 0 .058593.007813.085937.089844-.511719 1.011719-.910156 2.140625-.910156 1.132812 0 2.054688.398437 2.144531.910156.003907-.027344.007813-.054687.007813-.085937 0-.546876-.960938-.992188-2.152344-.992188zm-1.863281 1.988281c-.183594.144531-.285157.3125-.285157.496094 0 .027344 0 .054687.007813.082031.027344-.152344.125-.292968.277344-.414062.371093.296875 1.066406.496094 1.863281.496094.800781 0 1.492188-.199219 1.863281-.496094.15625.121094.253907.261718.28125.414062.003907-.027344.007813-.054687.007813-.082031 0-.183594-.105469-.351563-.289063-.496094-.371093.296875-1.0625.496094-1.863281.496094-.796875 0-1.492188-.199219-1.863281-.496094zm0 1.488281c-.183594.144532-.285157.3125-.285157.496094 0 .027344 0 .054688.007813.082032.027344-.152344.125-.292969.277344-.414063.371093.296875 1.066406.496094 1.863281.496094.800781 0 1.492188-.199219 1.863281-.496094.15625.121094.253907.261719.28125.414063.003907-.027344.007813-.054688.007813-.082032 0-.183594-.105469-.351562-.289063-.496094-.371093.296876-1.0625.496094-1.863281.496094-.796875 0-1.492188-.199218-1.863281-.496094zm0 0" fill="#fff" fill-opacity=".392157"/><path d="m5.804688 6.367188c-.011719.042968-.015626.082031-.015626.125 0 .550781.957032.992187 2.148438.992187s2.152344-.441406 2.152344-.992187c0-.042969-.007813-.082032-.019532-.125-.128906.492187-1.03125.871093-2.132812.871093-1.097656 0-2-.378906-2.132812-.871093zm0 1.488281c-.011719.042969-.015626.082031-.015626.125 0 .550781.957032.992187 2.148438.992187s2.152344-.441406 2.152344-.992187c0-.042969-.007813-.082031-.019532-.125-.128906.492187-1.03125.871093-2.132812.871093-1.097656 0-2-.378906-2.132812-.871093zm0 1.488281c-.011719.042969-.015626.082031-.015626.125 0 .550781.957032.992188 2.148438.992188s2.152344-.441407 2.152344-.992188c0-.042969-.007813-.082031-.019532-.125-.128906.492188-1.03125.871094-2.132812.871094-1.097656 0-2-.378906-2.132812-.871094zm0 0" fill-opacity=".235294"/><path d="m253.975747-47.016042c-38.12136 0-68.743436 14.24864-68.743436 31.746969 0 17.623317 30.622076 31.871956 68.743436 31.871956 38.121359 0 68.868423-14.248639 68.868423-31.871956 0-17.498329-30.747064-31.746969-68.868423-31.746969zm-59.619307 63.618925c-5.874439 4.624558-9.124129 9.999045-9.124129 15.873484 0 17.498329 30.622076 31.746969 68.743436 31.746969 38.121359 0 68.868423-14.24864 68.868423-31.746969 0-5.874439-3.374678-11.248926-9.249117-15.873484-11.873866 9.499093-33.996753 15.873484-59.619306 15.873484-25.497566 0-47.745441-6.374391-59.619307-15.873484zm0 47.620453c-5.874439 4.624558-9.124129 9.999045-9.124129 15.873484 0 17.498329 30.622076 31.746968 68.743436 31.746968 38.121359 0 68.868423-14.248639 68.868423-31.746968 0-5.874439-3.374678-11.248926-9.249117-15.873484-11.873866 9.499092-33.996753 15.873484-59.619306 15.873484-25.497566 0-47.745441-6.374392-59.619307-15.873484zm0 0" fill="none" stroke="#212121" stroke-linecap="round" stroke-linejoin="round" stroke-width="3" transform="matrix(.031253 0 0 .031253 0 6.719392)"/></svg>

<?xml version="1.0" encoding="UTF-8"?>
<svg xmlns="http://www.w3.org/2000/svg" xmlns:xlink="http://www.w3.org/1999/xlink" width="16px" height="16px" viewBox="0 0 16 16" version="1.1">
<defs>
<linearGradient id="linear0" gradientUnits="userSpaceOnUse" x1="254" y1="233.5" x2="254" y2="254.666672" gradientTransform="matrix(0.0372059,0,0,0.031253,-1.315168,6.719393)">
<stop offset="0" style="stop-color:rgb(0%,0%,0%);stop-opacity:0.27451;"/>
<stop offset="1" style="stop-color:rgb(0%,0%,0%);stop-opacity:0;"/>
</linearGradient>
<radialGradient id="radial0" gradientUnits="userSpaceOnUse" cx="450.908936" cy="189.579361" fx="450.908936" fy="189.579361" r="21.166656" gradientTransform="matrix(0.0000000870852,-0.0390662,-0.0703192,-0.0000000507693,25.238424,31.797666)">
<stop offset="0" style="stop-color:rgb(0%,0%,0%);stop-opacity:0.313726;"/>
<stop offset="0.222222" style="stop-color:rgb(0%,0%,0%);stop-opacity:0.27451;"/>
<stop offset="1" style="stop-color:rgb(0%,0%,0%);stop-opacity:0;"/>
</radialGradient>
<radialGradient id="radial1" gradientUnits="userSpaceOnUse" cx="450.908936" cy="189.579361" fx="450.908936" fy="189.579361" r="21.166656" gradientTransform="matrix(-0.0000000870852,0.0390662,0.0703192,0.0000000507693,-9.361907,-3.763739)">
<stop offset="0" style="stop-color:rgb(0%,0%,0%);stop-opacity:0.313726;"/>
<stop offset="0.222222" style="stop-color:rgb(0%,0%,0%);stop-opacity:0.27451;"/>
<stop offset="1" style="stop-color:rgb(0%,0%,0%);stop-opacity:0;"/>
</radialGradient>
<radialGradient id="radial2" gradientUnits="userSpaceOnUse" cx="450.908936" cy="189.579361" fx="450.908936" fy="189.579361" r="21.166656" gradientTransform="matrix(-0.0000000870852,-0.0390662,0.0703192,-0.0000000507693,-9.361907,31.797666)">
<stop offset="0" style="stop-color:rgb(0%,0%,0%);stop-opacity:0.313726;"/>
<stop offset="0.222222" style="stop-color:rgb(0%,0%,0%);stop-opacity:0.27451;"/>
<stop offset="1" style="stop-color:rgb(0%,0%,0%);stop-opacity:0;"/>
</radialGradient>
<radialGradient id="radial3" gradientUnits="userSpaceOnUse" cx="450.908936" cy="189.579361" fx="450.908936" fy="189.579361" r="21.166656" gradientTransform="matrix(0.0000000870852,0.0390662,-0.0703192,0.0000000507693,25.238423,-3.76374)">
<stop offset="0" style="stop-color:rgb(0%,0%,0%);stop-opacity:0.313726;"/>
<stop offset="0.222222" style="stop-color:rgb(0%,0%,0%);stop-opacity:0.27451;"/>
<stop offset="1" style="stop-color:rgb(0%,0%,0%);stop-opacity:0;"/>
</radialGradient>
<linearGradient id="linear1" gradientUnits="userSpaceOnUse" x1="254" y1="233.5" x2="254" y2="-168.666672" gradientTransform="matrix(0.031253,0,0,0.031253,0,6.719391)">
<stop offset="0" style="stop-color:rgb(87.843138%,87.843138%,87.843138%);stop-opacity:1;"/>
<stop offset="1" style="stop-color:rgb(93.333334%,93.333334%,93.333334%);stop-opacity:1;"/>
</linearGradient>
<linearGradient id="linear2" gradientUnits="userSpaceOnUse" x1="413.712219" y1="-474.701691" x2="413.712219" y2="-72.535034" gradientTransform="matrix(0.031253,0,0,0.031253,0,6.719391)">
<stop offset="0" style="stop-color:rgb(92.54902%,25.098041%,47.843137%);stop-opacity:1;"/>
<stop offset="1" style="stop-color:rgb(94.117647%,38.431373%,57.254905%);stop-opacity:1;"/>
</linearGradient>
<linearGradient id="linear3" gradientUnits="userSpaceOnUse" x1="940" y1="1215.118164" x2="940" y2="655.118103" gradientTransform="matrix(0.00826902,0,0,0.00826902,0.165381,-0.16538)">
<stop offset="0" style="stop-color:rgb(92.54902%,25.098041%,47.843137%);stop-opacity:1;"/>
<stop offset="1" style="stop-color:rgb(94.117647%,38.431373%,57.254905%);stop-opacity:1;"/>
</linearGradient>
</defs>
<g id="surface1">
<path style=" stroke:none;fill-rule:nonzero;fill:url(#linear0);" d="M 3.804688 14.015625 L 12.074219 14.015625 L 12.074219 14.679688 L 3.804688 14.679688 Z M 3.804688 14.015625 "/>
<path style=" stroke:none;fill-rule:nonzero;fill:url(#radial0);" d="M 12.074219 14.015625 L 13.394531 14.015625 L 13.394531 13.355469 L 12.074219 13.355469 Z M 12.074219 14.015625 "/>
<path style=" stroke:none;fill-rule:nonzero;fill:url(#radial1);" d="M 3.804688 14.015625 L 2.480469 14.015625 L 2.480469 14.679688 L 3.804688 14.679688 Z M 3.804688 14.015625 "/>
<path style=" stroke:none;fill-rule:nonzero;fill:url(#radial2);" d="M 3.804688 14.015625 L 2.480469 14.015625 L 2.480469 13.355469 L 3.804688 13.355469 Z M 3.804688 14.015625 "/>
<path style=" stroke:none;fill-rule:nonzero;fill:url(#radial3);" d="M 12.074219 14.015625 L 13.394531 14.015625 L 13.394531 14.679688 L 12.074219 14.679688 Z M 12.074219 14.015625 "/>
<path style=" stroke:none;fill-rule:nonzero;fill:url(#linear1);" d="M 9.953125 1.449219 L 3.308594 1.449219 C 2.941406 1.449219 2.644531 1.742188 2.644531 2.109375 L 2.644531 13.355469 C 2.644531 13.722656 2.941406 14.015625 3.308594 14.015625 L 12.570312 14.015625 C 12.933594 14.015625 13.230469 13.722656 13.230469 13.355469 L 13.230469 4.453125 Z M 9.953125 1.449219 "/>
<path style=" stroke:none;fill-rule:nonzero;fill:url(#linear2);" d="M 9.953125 1.449219 L 13.230469 4.453125 L 13.230469 2.109375 C 13.230469 1.742188 12.933594 1.449219 12.570312 1.449219 Z M 9.953125 1.449219 "/>
<path style=" stroke:none;fill-rule:nonzero;fill:rgb(0%,0%,0%);fill-opacity:0.235294;" d="M 2.644531 13.191406 L 2.644531 13.355469 C 2.644531 13.722656 2.941406 14.015625 3.308594 14.015625 L 12.570312 14.015625 C 12.933594 14.015625 13.230469 13.722656 13.230469 13.355469 L 13.230469 13.191406 C 13.230469 13.554688 12.933594 13.851562 12.570312 13.851562 L 3.308594 13.851562 C 2.941406 13.851562 2.644531 13.554688 2.644531 13.191406 Z M 2.644531 13.191406 "/>
<path style=" stroke:none;fill-rule:nonzero;fill:rgb(100%,100%,100%);fill-opacity:1;" d="M 3.308594 1.449219 C 2.941406 1.449219 2.644531 1.742188 2.644531 2.109375 L 2.644531 2.441406 C 2.644531 2.074219 2.941406 1.777344 3.308594 1.777344 L 9.953125 1.777344 L 13.230469 4.785156 L 13.230469 4.453125 L 9.953125 1.449219 Z M 3.308594 1.449219 "/>
<path style=" stroke:none;fill-rule:nonzero;fill:rgb(100%,100%,100%);fill-opacity:0.392157;" d="M 9.953125 1.449219 L 10.3125 1.777344 L 12.570312 1.777344 C 12.933594 1.777344 13.230469 2.074219 13.230469 2.441406 L 13.230469 2.109375 C 13.230469 1.742188 12.933594 1.449219 12.570312 1.449219 Z M 9.953125 1.449219 "/>
<path style=" stroke:none;fill-rule:nonzero;fill:rgb(0%,0%,0%);fill-opacity:0.235294;" d="M 9.953125 1.449219 L 13.230469 4.453125 L 13.230469 4.175781 L 10.253906 1.449219 Z M 9.953125 1.449219 "/>
<path style="fill:none;stroke-width:11.338583;stroke-linecap:round;stroke-linejoin:round;stroke:rgb(12.941177%,12.941177%,12.941177%);stroke-opacity:1;stroke-miterlimit:4;" d="M 1203.664647 175.258863 L 400.119292 175.258863 C 355.714081 175.258863 319.811996 210.688553 319.811996 255.093763 L 319.811996 1615.121439 C 319.811996 1659.52665 355.714081 1694.956339 400.119292 1694.956339 L 1520.169872 1694.956339 C 1564.102686 1694.956339 1600.004772 1659.52665 1600.004772 1615.121439 L 1600.004772 538.531278 Z M 1203.664647 175.258863 " transform="matrix(0.00826902,0,0,0.00826902,0,0)"/>
<path style="fill:none;stroke-width:3;stroke-linecap:round;stroke-linejoin:round;stroke:rgb(12.941177%,12.941177%,12.941177%);stroke-opacity:1;stroke-miterlimit:4;" d="M 318.469588 -168.629428 L 423.334574 -72.513607 L 423.334574 -147.506445 C 423.334574 -159.255323 413.835481 -168.629428 402.211591 -168.629428 Z M 318.469588 -168.629428 " transform="matrix(0.031253,0,0,0.031253,0,6.719392)"/>
<path style=" stroke:none;fill-rule:nonzero;fill:url(#linear3);" d="M 7.9375 5.25 C 6.746094 5.25 5.789062 5.695312 5.789062 6.242188 C 5.789062 6.792969 6.746094 7.238281 7.9375 7.238281 C 9.128906 7.238281 10.089844 6.792969 10.089844 6.242188 C 10.089844 5.695312 9.128906 5.25 7.9375 5.25 Z M 6.074219 7.238281 C 5.890625 7.382812 5.789062 7.550781 5.789062 7.734375 C 5.789062 8.28125 6.746094 8.726562 7.9375 8.726562 C 9.128906 8.726562 10.089844 8.28125 10.089844 7.734375 C 10.089844 7.550781 9.984375 7.382812 9.800781 7.238281 C 9.429688 7.535156 8.738281 7.734375 7.9375 7.734375 C 7.140625 7.734375 6.445312 7.535156 6.074219 7.238281 Z M 6.074219 8.726562 C 5.890625 8.871094 5.789062 9.039062 5.789062 9.222656 C 5.789062 9.769531 6.746094 10.214844 7.9375 10.214844 C 9.128906 10.214844 10.089844 9.769531 10.089844 9.222656 C 10.089844 9.039062 9.984375 8.871094 9.800781 8.726562 C 9.429688 9.023438 8.738281 9.222656 7.9375 9.222656 C 7.140625 9.222656 6.445312 9.023438 6.074219 8.726562 Z M 6.074219 8.726562 "/>
<path style=" stroke:none;fill-rule:nonzero;fill:rgb(100%,100%,100%);fill-opacity:0.392157;" d="M 7.9375 5.25 C 6.746094 5.25 5.789062 5.695312 5.789062 6.242188 C 5.789062 6.273438 5.789062 6.300781 5.796875 6.328125 C 5.886719 5.816406 6.808594 5.417969 7.9375 5.417969 C 9.070312 5.417969 9.992188 5.816406 10.082031 6.328125 C 10.085938 6.300781 10.089844 6.273438 10.089844 6.242188 C 10.089844 5.695312 9.128906 5.25 7.9375 5.25 Z M 6.074219 7.238281 C 5.890625 7.382812 5.789062 7.550781 5.789062 7.734375 C 5.789062 7.761719 5.789062 7.789062 5.796875 7.816406 C 5.824219 7.664062 5.921875 7.523438 6.074219 7.402344 C 6.445312 7.699219 7.140625 7.898438 7.9375 7.898438 C 8.738281 7.898438 9.429688 7.699219 9.800781 7.402344 C 9.957031 7.523438 10.054688 7.664062 10.082031 7.816406 C 10.085938 7.789062 10.089844 7.761719 10.089844 7.734375 C 10.089844 7.550781 9.984375 7.382812 9.800781 7.238281 C 9.429688 7.535156 8.738281 7.734375 7.9375 7.734375 C 7.140625 7.734375 6.445312 7.535156 6.074219 7.238281 Z M 6.074219 8.726562 C 5.890625 8.871094 5.789062 9.039062 5.789062 9.222656 C 5.789062 9.25 5.789062 9.277344 5.796875 9.304688 C 5.824219 9.152344 5.921875 9.011719 6.074219 8.890625 C 6.445312 9.1875 7.140625 9.386719 7.9375 9.386719 C 8.738281 9.386719 9.429688 9.1875 9.800781 8.890625 C 9.957031 9.011719 10.054688 9.152344 10.082031 9.304688 C 10.085938 9.277344 10.089844 9.25 10.089844 9.222656 C 10.089844 9.039062 9.984375 8.871094 9.800781 8.726562 C 9.429688 9.023438 8.738281 9.222656 7.9375 9.222656 C 7.140625 9.222656 6.445312 9.023438 6.074219 8.726562 Z M 6.074219 8.726562 "/>
<path style=" stroke:none;fill-rule:nonzero;fill:rgb(0%,0%,0%);fill-opacity:0.235294;" d="M 5.804688 6.367188 C 5.792969 6.410156 5.789062 6.449219 5.789062 6.492188 C 5.789062 7.042969 6.746094 7.484375 7.9375 7.484375 C 9.128906 7.484375 10.089844 7.042969 10.089844 6.492188 C 10.089844 6.449219 10.082031 6.410156 10.070312 6.367188 C 9.941406 6.859375 9.039062 7.238281 7.9375 7.238281 C 6.839844 7.238281 5.9375 6.859375 5.804688 6.367188 Z M 5.804688 7.855469 C 5.792969 7.898438 5.789062 7.9375 5.789062 7.980469 C 5.789062 8.53125 6.746094 8.972656 7.9375 8.972656 C 9.128906 8.972656 10.089844 8.53125 10.089844 7.980469 C 10.089844 7.9375 10.082031 7.898438 10.070312 7.855469 C 9.941406 8.347656 9.039062 8.726562 7.9375 8.726562 C 6.839844 8.726562 5.9375 8.347656 5.804688 7.855469 Z M 5.804688 9.34375 C 5.792969 9.386719 5.789062 9.425781 5.789062 9.46875 C 5.789062 10.019531 6.746094 10.460938 7.9375 10.460938 C 9.128906 10.460938 10.089844 10.019531 10.089844 9.46875 C 10.089844 9.425781 10.082031 9.386719 10.070312 9.34375 C 9.941406 9.835938 9.039062 10.214844 7.9375 10.214844 C 6.839844 10.214844 5.9375 9.835938 5.804688 9.34375 Z M 5.804688 9.34375 "/>
<path style="fill:none;stroke-width:3;stroke-linecap:round;stroke-linejoin:round;stroke:rgb(12.941177%,12.941177%,12.941177%);stroke-opacity:1;stroke-miterlimit:4;" d="M 253.975747 -47.016042 C 215.854387 -47.016042 185.232311 -32.767402 185.232311 -15.269073 C 185.232311 2.354244 215.854387 16.602883 253.975747 16.602883 C 292.097106 16.602883 322.84417 2.354244 322.84417 -15.269073 C 322.84417 -32.767402 292.097106 -47.016042 253.975747 -47.016042 Z M 194.35644 16.602883 C 188.482001 21.227441 185.232311 26.601928 185.232311 32.476367 C 185.232311 49.974696 215.854387 64.223336 253.975747 64.223336 C 292.097106 64.223336 322.84417 49.974696 322.84417 32.476367 C 322.84417 26.601928 319.469492 21.227441 313.595053 16.602883 C 301.721187 26.101976 279.5983 32.476367 253.975747 32.476367 C 228.478181 32.476367 206.230306 26.101976 194.35644 16.602883 Z M 194.35644 64.223336 C 188.482001 68.847894 185.232311 74.222381 185.232311 80.09682 C 185.232311 97.595149 215.854387 111.843788 253.975747 111.843788 C 292.097106 111.843788 322.84417 97.595149 322.84417 80.09682 C 322.84417 74.222381 319.469492 68.847894 313.595053 64.223336 C 301.721187 73.722428 279.5983 80.09682 253.975747 80.09682 C 228.478181 80.09682 206.230306 73.722428 194.35644 64.223336 Z M 194.35644 64.223336 " transform="matrix(0.031253,0,0,0.031253,0,6.719392)"/>
</g>
</svg>
